src/cart/components/img/good.svg

<?xml version="1.0" encoding="utf-8"?>
<!-- Generator: Adobe Illustrator 15.1.0, SVG Export Plug-In . SVG Version: 6.00 Build 0)  -->
<!DOCTYPE svg PUBLIC "-//W3C//DTD SVG 1.1//EN" "http://www.w3.org/Graphics/SVG/1.1/DTD/svg11.dtd">
<svg version="1.1" id="Layer_1" xmlns="http://www.w3.org/2000/svg" xmlns:xlink="http://www.w3.org/1999/xlink" x="0px" y="0px"
	 width="50px" height="50px" viewBox="0 0 50 50" enable-background="new 0 0 50 50" xml:space="preserve">
<g id="Desktop-_x2F_-Checkout-1">
	<g id="Desktop-Checkout_Thank-you" transform="translate(-1159.000000, -330.000000)">
		<g id="Rating" transform="translate(933.000000, 182.000000)">
			<g id="Rating--2" transform="translate(67.000000, 148.000000)">
				<g id="Good" transform="translate(159.000000, 0.000000)">
					<path id="Fill-1" d="M25,45.814c-11.478,0-20.82-9.337-20.82-20.815C4.18,13.521,13.522,4.18,25,4.18
						c11.479,0,20.815,9.341,20.815,20.819C45.815,36.478,36.479,45.814,25,45.814 M25,0C11.213,0,0,11.212,0,24.999
						c0,13.782,11.213,25,25,25c13.781,0,25-11.218,25-25C50,11.212,38.781,0,25,0"/>
					<path id="Fill-7" d="M14.797,27.361c-0.959,0-1.835,0.584-2.246,1.499c-0.411,0.918-0.277,1.996,0.333,2.776
						c3.075,3.925,7.606,6.191,12.439,6.191c4.816,0,9.347-2.246,12.423-6.171c0.618-0.767,0.736-1.857,0.334-2.764
						c-0.417-0.916-1.279-1.502-2.243-1.502L14.797,27.361z"/>
					<path id="Fill-3" d="M30.951,23.171c1.87,0,3.391-1.52,3.391-3.396c0-1.876-1.521-3.396-3.391-3.396
						c-1.883,0-3.402,1.52-3.402,3.396C27.549,21.651,29.068,23.171,30.951,23.171"/>
					<path id="Fill-5" d="M19.049,23.171c1.876,0,3.396-1.52,3.396-3.396c0-1.876-1.52-3.396-3.396-3.396
						c-1.87,0-3.396,1.52-3.396,3.396C15.653,21.651,17.179,23.171,19.049,23.171"/>
				</g>
			</g>
		</g>
	</g>
</g>
</svg>

<?xml version="1.0" encoding="UTF-8"?>
<svg width="50px" height="50px" viewBox="0 0 50 50" version="1.1" xmlns="http://www.w3.org/2000/svg" xmlns:xlink="http://www.w3.org/1999/xlink">
    <!-- Generator: Sketch 48.2 (47327) - http://www.bohemiancoding.com/sketch -->
    <title>Artboard 3</title>
    <desc>Created with Sketch.</desc>
    <defs></defs>
    <g id="2018011811" stroke="none" stroke-width="1" fill="none" fill-rule="evenodd">
        <g id="Artboard-3" fill="#B2B2B2" fill-rule="nonzero">
            <g id="Group-57">
                <path d="M25,45.814 C13.522,45.814 4.18,36.477 4.18,24.999 C4.18,13.521 13.522,4.18 25,4.18 C36.479,4.18 45.815,13.521 45.815,24.999 C45.815,36.478 36.479,45.814 25,45.814 M25,0 C11.213,0 0,11.212 0,24.999 C0,38.781 11.213,49.999 25,49.999 C38.781,49.999 50,38.781 50,24.999 C50,11.212 38.781,0 25,0" id="Fill-1"></path>
                <path d="M14.797,27.361 C13.838,27.361 12.962,27.945 12.551,28.86 C12.14,29.778 12.274,30.856 12.884,31.636 C15.959,35.561 20.49,37.827 25.323,37.827 C30.139,37.827 34.67,35.581 37.746,31.656 C38.364,30.889 38.482,29.799 38.08,28.892 C37.663,27.976 36.801,27.39 35.837,27.39 L14.797,27.361 Z" id="Fill-7"></path>
                <path d="M30.951,23.171 C32.821,23.171 34.342,21.651 34.342,19.775 C34.342,17.899 32.821,16.379 30.951,16.379 C29.068,16.379 27.549,17.899 27.549,19.775 C27.549,21.651 29.068,23.171 30.951,23.171" id="Fill-3"></path>
                <path d="M19.049,23.171 C20.925,23.171 22.445,21.651 22.445,19.775 C22.445,17.899 20.925,16.379 19.049,16.379 C17.179,16.379 15.653,17.899 15.653,19.775 C15.653,21.651 17.179,23.171 19.049,23.171" id="Fill-5"></path>
            </g>
        </g>
    </g>
</svg>
